packages/foundations/assets/icons/functional/images/security/key_16.svg

<svg width="16" height="16" viewBox="0 0 16 16" fill="none" xmlns="http://www.w3.org/2000/svg">
<g clip-path="url(#clip0_187_271)">
<path fill-rule="evenodd" clip-rule="evenodd" d="M12.0865 1.6864L13.5153 1.6944C13.8457 1.704 14.2041 2.0688 14.2281 2.4688L14.4001 5.5184C14.3721 5.9128 14.0649 6.24 13.6609 6.284L12.7681 6.3808L12.6433 7.4008C12.5633 7.7048 12.3169 7.9416 12.0017 8.0048L10.8321 8.2384C10.811 8.2594 10.7844 8.28592 10.7537 8.31655L10.0368 9.03287C10.0196 9.05008 10.0045 9.06513 9.99208 9.0776C10.3665 10.8024 9.75368 12.1808 8.86488 13.0688C7.21288 14.7208 4.51528 14.7384 2.84648 13.0688C1.17688 11.4 1.19208 8.704 2.84648 7.0504C3.73448 6.1624 4.97448 5.7192 6.15848 5.8136L10.0513 1.9312C10.2193 1.7632 10.4465 1.6856 10.6305 1.6856L12.0865 1.6864ZM10.9585 3.2856L6.76648 7.4664L6.03208 7.4088C5.96968 7.4032 5.90728 7.4008 5.84488 7.4008C5.15448 7.4008 4.47368 7.6856 3.97768 8.1824C3.47768 8.6816 3.20088 9.3472 3.20008 10.0568C3.19928 10.7672 3.47528 11.4352 3.97768 11.9384C4.47848 12.4392 5.14488 12.7144 5.85368 12.7144C6.56568 12.7144 7.23288 12.4392 7.73288 11.9384C8.19928 11.4728 8.69768 10.6568 8.42888 9.4168L8.24408 8.5656L10.0441 6.764L11.1361 6.5456L11.3337 4.9256L12.7553 4.7728L12.6713 3.2896L10.9585 3.2856ZM6.72016 9.19496C7.19776 9.67256 7.19776 10.447 6.72016 10.9246C6.24256 11.4022 5.46816 11.4022 4.99056 10.9246C4.51296 10.447 4.51296 9.67256 4.99056 9.19496C5.46816 8.71736 6.24256 8.71736 6.72016 9.19496Z" fill="#1A1C1F"/>
</g>
<defs>
<clipPath id="clip0_187_271">
<rect width="16" height="16" fill="white"/>
</clipPath>
</defs>
</svg>

<svg xmlns="http://www.w3.org/2000/svg" width="16" height="16" fill="none"><g clip-path="url(#a)"><path fill="#1A1C1F" fill-rule="evenodd" d="m12.087 1.686 1.428.008c.33.01.69.375.713.775l.172 3.05a.83.83 0 0 1-.74.765l-.892.097-.125 1.02a.83.83 0 0 1-.641.604l-1.17.233-.078.079-.717.716-.045.045c.374 1.724-.238 3.103-1.127 3.99A4.256 4.256 0 1 1 2.847 7.05a4.26 4.26 0 0 1 3.311-1.236l3.893-3.883a.85.85 0 0 1 .58-.245zm-1.128 1.6-4.193 4.18-.734-.057a2 2 0 0 0-.187-.008 2.66 2.66 0 0 0-1.867 4.537c.5.501 1.167.776 1.876.776.712 0 1.379-.275 1.879-.776.466-.465.965-1.281.696-2.521l-.185-.851 1.8-1.802 1.092-.218.198-1.62 1.421-.153-.084-1.483zM6.72 9.195a1.223 1.223 0 1 1-1.73 1.73 1.223 1.223 0 0 1 1.73-1.73" clip-rule="evenodd"/></g><defs><clipPath id="a"><path fill="#fff" d="M0 0h16v16H0z"/></clipPath></defs></svg>
